dist/img/svg/measure-icon.svg

<svg width="75" height="75" viewBox="0 0 75 75" fill="none" xmlns="http://www.w3.org/2000/svg">
<path d="M28.125 15.625C33.9266 15.625 39.4906 17.9297 43.593 22.0321C47.6953 26.1344 50 31.6984 50 37.5H53.125V46.875H50V59.375H28.125C22.3234 59.375 16.7594 57.0704 12.657 52.968C8.55468 48.8656 6.25 43.3016 6.25 37.5C6.25 31.6984 8.55468 26.1344 12.657 22.0321C16.7594 17.9297 22.3234 15.625 28.125 15.625ZM28.125 25C24.8098 25 21.6304 26.317 19.2862 28.6612C16.942 31.0054 15.625 34.1848 15.625 37.5C15.625 40.8152 16.942 43.9947 19.2862 46.3389C21.6304 48.6831 24.8098 50 28.125 50C31.4402 50 34.6196 48.6831 36.9638 46.3389C39.308 43.9947 40.625 40.8152 40.625 37.5C40.625 34.1848 39.308 31.0054 36.9638 28.6612C34.6196 26.317 31.4402 25 28.125 25ZM53.125 53.125H68.75V65.625H62.5V59.375H53.125V53.125Z" fill="white"/>
</svg>

<svg width="75" height="75" viewBox="0 0 75 75" fill="none" xmlns="http://www.w3.org/2000/svg"><path d="M28.125 15.625A21.875 21.875 0 0150 37.5h3.125v9.375H50v12.5H28.125a21.875 21.875 0 110-43.75zm0 9.375a12.5 12.5 0 100 25 12.5 12.5 0 000-25zm25 28.125H68.75v12.5H62.5v-6.25h-9.375v-6.25z" fill="#fff"/></svg>
